X:136
T:Rondeau de Samatan
R:Rondeau
A:Gascogne
O:France
M:2/4
L:1/8
Q:1/4=120
K:G
GA/2B/2 AG|FA AG|GA/2B/2 AG|FA G2:|
|:GA/2B/2 Ad|dc/2B/2 AA|GA/2B/2 Ad|d2 A2:||
